ProjectFiles/res/Program1_ELEMENT_1.svg

<svg version="1.2" baseProfile="tiny" viewBox="0 0 16 16" xmlns:xlink="http://www.w3.org/1999/xlink" xmlns="http://www.w3.org/2000/svg">
<path style="fill:#ffffff;" d="M15.621,0.465027H0.379C0.17,0.465027,0,0.635027,0,0.844027V11.683C0,11.892,0.17,12.062,0.379,12.062H7.621V14.777H5.129C4.92,14.777,4.75,14.947,4.75,15.156C4.75,15.365,4.92,15.535,5.129,15.535H10.872C11.081,15.535,11.251,15.365,11.251,15.156C11.251,14.947,11.081,14.777,10.872,14.777H8.379V12.062H15.621C15.83,12.062,16,11.892,16,11.683V0.844027C16,0.635027,15.83,0.465027,15.621,0.465027ZM15.242,11.304H0.758V1.22303H15.242V11.304Z"/>
<path style="fill:#ffffff;" d="M15.621,0.465027H0.379C0.17,0.465027,0,0.635027,0,0.844027V11.683C0,11.892,0.17,12.062,0.379,12.062H7.621V14.777H5.129C4.92,14.777,4.75,14.947,4.75,15.156C4.75,15.365,4.92,15.535,5.129,15.535H10.872C11.081,15.535,11.251,15.365,11.251,15.156C11.251,14.947,11.081,14.777,10.872,14.777H8.379V12.062H15.621C15.83,12.062,16,11.892,16,11.683V0.844027C16,0.635027,15.83,0.465027,15.621,0.465027ZM15.242,11.304H0.758V1.22303H15.242V11.304Z"/>
</svg>

<svg xmlns="http://www.w3.org/2000/svg" baseProfile="tiny" version="1.2" viewBox="0 0 16 16"><path d="M15.621.465H.379A.38.38 0 0 0 0 .844v10.839c0 .209.17.379.379.379h7.242v2.715H5.129a.38.38 0 0 0 0 .758h5.743a.38.38 0 0 0 0-.758H8.379v-2.715h7.242a.38.38 0 0 0 .379-.379V.844a.38.38 0 0 0-.379-.379m-.379 10.839H.758V1.223h14.484z" style="fill:#fff"/><path d="M15.621.465H.379A.38.38 0 0 0 0 .844v10.839c0 .209.17.379.379.379h7.242v2.715H5.129a.38.38 0 0 0 0 .758h5.743a.38.38 0 0 0 0-.758H8.379v-2.715h7.242a.38.38 0 0 0 .379-.379V.844a.38.38 0 0 0-.379-.379m-.379 10.839H.758V1.223h14.484z" style="fill:#fff"/></svg>
